svg/computer.svg

<svg xmlns="http://www.w3.org/2000/svg" viewBox="0 0 64 48" enable-background="new 0 0 64 48"><style type="text/css">.st0{fill:#333333;}</style><title>computer</title><desc>Created with Sketch.</desc><path class="st0" d="M5 40h54c1.7 0 3-1.3 3-3v-34c0-1.7-1.3-3-3-3h-54c-1.7 0-3 1.3-3 3v34c0 1.7 1.3 3 3 3zm1-36h52v32h-52v-32zM62 44h-60c-1.1 0-2 .9-2 2s.9 2 2 2h60c1.1 0 2-.9 2-2s-.9-2-2-2z"/></svg>

<svg xmlns="http://www.w3.org/2000/svg" viewBox="0 0 64 48"><path d="M5 40h54c1.7 0 3-1.3 3-3V3c0-1.7-1.3-3-3-3H5C3.3 0 2 1.3 2 3v34c0 1.7 1.3 3 3 3zM6 4h52v32H6V4zm56 40H2c-1.1 0-2 .9-2 2s.9 2 2 2h60c1.1 0 2-.9 2-2s-.9-2-2-2z" fill="#333"/></svg>
